dist/svg/server-add.svg

<!-- Generated by Trend Micro Style Portal -->
<svg version="1.1" xmlns="http://www.w3.org/2000/svg" width="16" height="16" viewBox="0 0 16 16">
  <title>server-add</title>
  <path fill="rgb(34,34,34)" d="M14 3v-3h-14v3zM2 1h3v1h-3zM14 7v-3h-14v3zM2 5h3v1h-3zM16 13h-3v3h-2v-3h-3v-2h3v-3h2v3h3zM0 8v3h6v-1h3v-2zM5 10h-3v-1h3z"></path>
</svg>

<svg width="16" height="16" viewBox="0 0 16 16" fill="rgb(34, 34, 34)" xmlns="http://www.w3.org/2000/svg"><title>server-add</title><path d="M14 3V0H0V3H14ZM2 1H5V2H2V1ZM14 7V4H0V7H14ZM2 5H5V6H2V5ZM16 13H13V16H11V13H8V11H11V8H13V11H16V13ZM0 8V11H6V10H9V8H0ZM5 10H2V9H5V10Z" fill="rgb(34, 34, 34)" fill-opacity="1.00"/></svg>
